!!!OTL: Graf und Nonne (Die Nonne) Du hast gesagt, du nehmest mich,
!!!ARE: Europa, Osteuropa, Tschechoslowakei, Kremnitz, Kuneschau
!!!ARD1: Europa%Osteuropa%Tschechoslowakei@Kremnitz:Kuneschau!?
!!!ARL1: ? / ?
!!!ARD2: Europa%Osteuropa%Slovensko@Kremnitz:
!!!ARL2: 48.70/18.91:
!!!YOR: 8, S. 288
!!    1938 gedruckt in Pressburg (ca.)
!!!SCT: Q0155D.
!!!YEM: Copyright 1995, estate of Helmut Schaffrath.
**kern
*ICvox
*Ivox
*M2/4
*k[f#]
*G:
{8d
=1
8b
8b
8a
8a
=2
8g
8d
8d}
{8d
=3
8b
8b
8a
8a
=4
4b
8r}
{16g
16a
=5
8b
8b
8b
8b
=6
4dd
8cc}
{8b
=7
8b
8a
8a
8a
=8
4ee
8dd}
{8cc
=9
8b
8b
8a
8a
=10
4g
8r}
==
!!!AGN: Ballade, Standesunterschied, vergebliche Werbung, Liebes - Lied
!!!ONB: ESAC (Essen Associative Code) Database: BALLADE
!!!AMT: simple duple
!!!AIN: vox
!!!EED: Helmut Schaffrath
!!!EEV: 1.0
*-
!!!title: @{OTL} [@{SCT}]
